Newaita-dark/actions/22/run-build-install-root.svg

<?xml version="1.0" encoding="UTF-8"?>
<svg xmlns="http://www.w3.org/2000/svg" xmlns:xlink="http://www.w3.org/1999/xlink" width="22pt" height="22pt" viewBox="0 0 22 22" version="1.1">
<g id="surface1">
<path style=" stroke:none;fill-rule:nonzero;fill:rgb(74.117649%,74.117649%,74.117649%);fill-opacity:1;" d="M 10.003906 1.082031 C 9.5 1.082031 9.097656 1.488281 9.097656 1.992188 L 9.097656 3.101562 C 8.179688 3.308594 7.324219 3.667969 6.550781 4.152344 L 5.769531 3.367188 C 5.414062 3.011719 4.839844 3.011719 4.484375 3.367188 L 3.195312 4.65625 C 2.839844 5.011719 2.839844 5.585938 3.195312 5.941406 L 3.980469 6.722656 C 3.496094 7.496094 3.136719 8.351562 2.929688 9.269531 L 1.820312 9.269531 C 1.316406 9.269531 0.910156 9.671875 0.910156 10.175781 L 0.910156 11.996094 C 0.910156 12.5 1.316406 12.90625 1.820312 12.90625 L 2.929688 12.90625 C 3.136719 13.824219 3.496094 14.679688 3.980469 15.449219 L 3.195312 16.230469 C 2.839844 16.589844 2.839844 17.164062 3.195312 17.519531 L 4.484375 18.804688 C 4.839844 19.160156 5.414062 19.160156 5.769531 18.804688 L 6.550781 18.023438 C 7.324219 18.507812 8.179688 18.867188 9.097656 19.070312 L 9.097656 20.183594 C 9.097656 20.6875 9.5 21.09375 10.003906 21.09375 L 11.824219 21.09375 C 12.328125 21.09375 12.734375 20.6875 12.734375 20.183594 L 12.734375 17.664062 C 12.15625 17.824219 11.546875 17.910156 10.914062 17.910156 C 7.136719 17.910156 4.09375 14.867188 4.09375 11.085938 C 4.09375 7.308594 7.136719 4.265625 10.914062 4.265625 C 14.695312 4.265625 17.738281 7.308594 17.738281 11.085938 C 17.738281 11.71875 17.652344 12.328125 17.492188 12.90625 L 20.011719 12.90625 C 20.515625 12.90625 20.921875 12.5 20.921875 11.996094 L 20.921875 10.175781 C 20.921875 9.671875 20.515625 9.269531 20.011719 9.269531 L 18.898438 9.269531 C 18.695312 8.351562 18.335938 7.496094 17.851562 6.722656 L 18.632812 5.941406 C 18.988281 5.585938 18.988281 5.011719 18.632812 4.65625 L 17.347656 3.367188 C 16.992188 3.011719 16.417969 3.011719 16.058594 3.367188 L 15.277344 4.152344 C 14.507812 3.667969 13.652344 3.308594 12.734375 3.101562 L 12.734375 1.992188 C 12.734375 1.488281 12.328125 1.082031 11.824219 1.082031 Z M 10.003906 1.082031 "/>
<path style=" stroke:none;fill-rule:nonzero;fill:rgb(93.725491%,32.549021%,31.37255%);fill-opacity:1;" d="M 9.464844 7.714844 C 9.289062 7.707031 9.121094 7.773438 8.992188 7.894531 C 8.867188 8.015625 8.792969 8.183594 8.792969 8.359375 L 8.792969 13.816406 C 8.792969 14.046875 8.917969 14.261719 9.121094 14.375 C 9.324219 14.492188 9.570312 14.488281 9.769531 14.367188 L 14.320312 11.640625 C 14.511719 11.523438 14.632812 11.3125 14.632812 11.085938 C 14.632812 10.859375 14.511719 10.652344 14.320312 10.535156 L 9.769531 7.804688 C 9.679688 7.75 9.574219 7.71875 9.464844 7.714844 Z M 10.082031 9.496094 L 12.734375 11.085938 L 10.082031 12.675781 Z M 10.082031 9.496094 "/>
<path style=" stroke:none;fill-rule:nonzero;fill:rgb(93.725491%,32.549021%,31.37255%);fill-opacity:1;" d="M 20.429688 15.550781 C 20.4375 15.375 20.371094 15.203125 20.25 15.078125 C 20.128906 14.949219 19.960938 14.878906 19.785156 14.878906 L 14.328125 14.878906 C 14.09375 14.878906 13.882812 15.003906 13.765625 15.207031 C 13.652344 15.40625 13.65625 15.65625 13.773438 15.855469 L 16.503906 20.402344 C 16.621094 20.597656 16.828125 20.714844 17.054688 20.714844 C 17.28125 20.714844 17.492188 20.597656 17.609375 20.402344 L 20.335938 15.855469 C 20.394531 15.761719 20.425781 15.65625 20.429688 15.550781 Z M 18.648438 16.167969 L 17.054688 18.820312 L 15.464844 16.167969 Z M 18.648438 16.167969 "/>
</g>
</svg>

<svg xmlns="http://www.w3.org/2000/svg" width="22pt" height="22pt" viewBox="0 0 22 22"><path d="M10.004 1.082a.905.905 0 0 0-.906.91v1.11a8.18 8.18 0 0 0-2.547 1.05l-.781-.785a.908.908 0 0 0-1.286 0l-1.289 1.29a.908.908 0 0 0 0 1.284l.785.782A8.18 8.18 0 0 0 2.93 9.27H1.82a.905.905 0 0 0-.91.906v1.82c0 .504.406.91.91.91h1.11a8.12 8.12 0 0 0 1.05 2.543l-.785.781a.912.912 0 0 0 0 1.29l1.29 1.285a.908.908 0 0 0 1.285 0l.78-.782a8.08 8.08 0 0 0 2.548 1.047v1.114c0 .503.402.91.906.91h1.82c.504 0 .91-.407.91-.91v-2.52a6.804 6.804 0 0 1-1.82.246 6.808 6.808 0 0 1-6.82-6.824 6.807 6.807 0 0 1 6.82-6.82 6.808 6.808 0 0 1 6.824 6.82c0 .633-.086 1.242-.246 1.82h2.52c.504 0 .91-.406.91-.91v-1.82a.905.905 0 0 0-.91-.906h-1.114a8.08 8.08 0 0 0-1.046-2.547l.78-.782a.908.908 0 0 0 0-1.285l-1.284-1.289a.912.912 0 0 0-1.29 0l-.78.785a8.12 8.12 0 0 0-2.544-1.05v-1.11a.909.909 0 0 0-.91-.91zm0 0" fill="#bdbdbd"/><path d="M9.465 7.715a.647.647 0 0 0-.672.644v5.457c0 .23.125.446.328.559.203.117.45.113.649-.008l4.55-2.726a.654.654 0 0 0 .313-.555.648.648 0 0 0-.313-.55L9.77 7.804a.63.63 0 0 0-.305-.09zm.617 1.781l2.652 1.59-2.652 1.59zm0 0M20.43 15.55a.641.641 0 0 0-.18-.472.635.635 0 0 0-.465-.2h-5.457a.647.647 0 0 0-.555.977l2.73 4.547a.646.646 0 0 0 1.105 0l2.728-4.547c.059-.093.09-.199.094-.304zm-1.782.618l-1.593 2.652-1.59-2.652zm0 0" fill="#ef5350"/></svg>
